(Intro)
(RC_CASE_LEFT_OP_1)
(MACHINE)
(  VENDOR BOOST CONCEPTS)
(  MODEL XK7130)
(  DESCRIPTION XK7130)
(T6  D=0.375 CR=0. - ZMIN=-1.3049 - FLAT END MILL)
N10 G90 G94 G17 G91.1
N15 G20
N20 G53 G0 Z0.
(ADAPTIVE2)
(N25 T6 M6)
N30 S6000 M3
N35 G54
N40 G64 P0.001
N45 M8
N50 G0 X-2.9323 Y-1.2741
(N55 G43 Z0.205 H6)
N60 G0 Z-1.2049
N65 G1 Z-1.2549 F72.
N70 X-2.932 Y-1.2739 Z-1.2605
N75 X-2.9312 Y-1.2734 Z-1.266
N80 X-2.9299 Y-1.2727 Z-1.2714
N85 X-2.928 Y-1.2716 Z-1.2766
N90 X-2.9256 Y-1.2703 Z-1.2815
N95 X-2.9228 Y-1.2687 Z-1.286
N100 X-2.9195 Y-1.2669 Z-1.2902
N105 X-2.9159 Y-1.2648 Z-1.2939
N110 X-2.9119 Y-1.2626 Z-1.2972
N115 X-2.9076 Y-1.2602 Z-1.2999
N120 X-2.9031 Y-1.2576 Z-1.3021
N125 X-2.8984 Y-1.255 Z-1.3036
N130 X-2.8936 Y-1.2523 Z-1.3045
N135 X-2.8887 Y-1.2495 Z-1.3049
N140 G3 X-2.721 Y-1.1295 I-0.47 J0.8341
N145 G1 X-2.7197 Y-1.1282
N150 G2 X-2.7333 Y-0.7852 I2.6456 J0.2768
N155 X-2.7347 Y-0.4129 I19.1241 J0.2562
N160 G1 X-2.7348 Y0.6753
N165 Y0.8471
N170 X-2.7349 Y0.9044
N175 G2 X-2.6566 Y1.0515 I0.1997 J-0.0118
N180 X-2.4743 Y1.1288 I0.2313 J-0.2923
N185 X-2.2176 Y1.1473 I0.2303 J-1.4019
N190 X-1.819 Y1.1496 I0.2932 J-16.3716
N195 G1 X-1.8093 Y1.151
N200 X-1.7998 Y1.1528
N205 G2 X-1.5186 Y1.1825 I0.2665 J-1.1754
N210 G1 X1.8673
N215 G2 X2.0586 Y1.1668 I0.0133 J-1.0083
N220 G3 X2.3687 Y1.1514 I0.2511 J1.9355
N225 G2 X2.5118 Y1.1485 I-0.0835 J-7.5044
N230 X2.6655 Y1.0299 I-0.0481 J-0.2212
N235 X2.7214 Y0.839 I-0.4105 J-0.2238
N240 X2.7334 Y0.5244 I-2.5609 J-0.2552
N245 X2.7347 Y0.1521 I-20.3979 J-0.2586
N250 G1 X2.7348 Y-0.2774
N255 X2.7349 Y-0.9074
N260 G2 X2.6546 Y-1.0536 I-0.2015 J0.0155
N265 X2.4717 Y-1.1296 I-0.2311 J0.2981
N270 X2.215 Y-1.1477 I-0.23 J1.4311
N275 X1.7282 Y-1.15 I-0.3462 J22.1488
N280 G1 X1.4991
N285 X1.0411
N290 X1.0231 Y-1.1512
N295 X1.0055 Y-1.1549
N300 X0.9885 Y-1.1611
N305 G2 X0.8887 Y-1.182 I-0.093 J0.1953
N310 G1 X-1.4848
N315 G2 X-1.7385 Y-1.1652 I-0.0425 J1.281
N320 G3 X-2.0526 Y-1.1513 I-0.2524 J-2.1532
N325 X-2.4535 Y-1.1501 I-0.2608 J-19.262
N330 G2 X-2.5993 Y-1.0685 I0.0201 J0.2069
N335 X-2.6758 Y-0.8857 I0.3019 J0.2339
N340 X-2.6947 Y-0.6291 I1.4077 J0.2326
N345 X-2.6974 Y-0.2213 I18.8065 J0.3276
N350 G1 X-2.6993 Y-0.2136
N355 G2 X-2.709 Y0.1518 I1.1612 J0.2137
N360 G3 X-2.6984 Y0.5524 I-3.8666 J0.3021
N365 G1 X-2.6974 Y0.6097
N370 Y0.6956
N375 Y0.8101
N380 G2 X-2.5687 Y1.0217 I0.2632 J-0.0151
N385 X-2.3536 Y1.0941 I0.2595 J-0.4152
N390 X-2.0966 Y1.1098 I0.2377 J-1.782
N395 X-1.9469 Y1.1125 I7.1163 J-396.5648
N400 G1 X-1.9331 Y1.1148
N405 X-1.9197 Y1.1186
N410 G2 X-1.7998 Y1.1528 I0.3888 J-1.136
N415 G3 X-1.7649 Y1.1702 I-0.0265 J0.0964
N420 G1 X-1.7605 Y1.1737 Z-1.3045
N425 X-1.7561 Y1.1771 Z-1.3036
N430 X-1.7519 Y1.1804 Z-1.3021
N435 X-1.7478 Y1.1836 Z-1.2999
N440 X-1.7439 Y1.1866 Z-1.2972
N445 X-1.7403 Y1.1894 Z-1.2939
N450 X-1.737 Y1.1919 Z-1.2902
N455 X-1.7341 Y1.1942 Z-1.286
N460 X-1.7315 Y1.1962 Z-1.2815
N465 X-1.7294 Y1.1979 Z-1.2766
N470 X-1.7277 Y1.1992 Z-1.2714
N475 X-1.7264 Y1.2002 Z-1.266
N480 X-1.7257 Y1.2007 Z-1.2605
N485 X-1.7255 Y1.2009 Z-1.2549
N490 G0 Z0.105
N495 X-2.756 Y0.0768
N500 Z-1.2049
N505 G1 Z-1.2549 F72.
N510 X-2.7558 Y0.077 Z-1.2605
N515 X-2.7553 Y0.0778 Z-1.266
N520 X-2.7543 Y0.079 Z-1.2714
N525 X-2.753 Y0.0807 Z-1.2766
N530 X-2.7513 Y0.0828 Z-1.2815
N535 X-2.7493 Y0.0853 Z-1.286
N540 X-2.7469 Y0.0883 Z-1.2902
N545 X-2.7443 Y0.0915 Z-1.2939
N550 X-2.7415 Y0.0951 Z-1.2972
N555 X-2.7384 Y0.099 Z-1.2999
N560 X-2.7352 Y0.103 Z-1.3021
N565 X-2.7319 Y0.1072 Z-1.3036
N570 X-2.7284 Y0.1116 Z-1.3045
N575 X-2.725 Y0.116 Z-1.3049
N580 G3 X-2.709 Y0.1518 I-0.062 J0.0492
N585 G2 X-2.6819 Y0.2929 I1.1528 J-0.148
N590 G3 X-2.6622 Y0.5586 I-1.2572 J0.2268
N595 G2 X-2.6582 Y0.759 I17.2783 J-0.2434
N600 X-2.4756 Y0.9995 I0.3088 J-0.0449
N605 X-2.2841 Y1.0553 I0.2514 J-0.5069
N610 X-2.0444 Y1.0727 I0.301 J-2.4851
N615 G1 X-2.0282 Y1.0766
N620 X-2.0127 Y1.0822
N625 G2 X-1.9197 Y1.1186 I0.4872 J-1.1101
N630 G3 X-1.8866 Y1.1393 I-0.0355 J0.0935
N635 G1 X-1.8826 Y1.1431 Z-1.3045
N640 X-1.8785 Y1.1469 Z-1.3036
N645 X-1.8746 Y1.1506 Z-1.3021
N650 X-1.8708 Y1.1541 Z-1.2999
N655 X-1.8673 Y1.1575 Z-1.2972
N660 X-1.8639 Y1.1606 Z-1.2939
N665 X-1.8609 Y1.1635 Z-1.2902
N670 X-1.8582 Y1.1661 Z-1.286
N675 X-1.8558 Y1.1683 Z-1.2815
N680 X-1.8538 Y1.1701 Z-1.2766
N685 X-1.8523 Y1.1716 Z-1.2714
N690 X-1.8511 Y1.1727 Z-1.266
N695 X-1.8505 Y1.1733 Z-1.2605
N700 X-1.8502 Y1.1735 Z-1.2549
N705 G0 Z0.105
N710 X-2.7372 Y0.2237
N715 Z-1.2049
N720 G1 Z-1.2549 F72.
N725 X-2.737 Y0.224 Z-1.2605
N730 X-2.7363 Y0.2246 Z-1.266
N735 X-2.7352 Y0.2257 Z-1.2714
N740 X-2.7337 Y0.2272 Z-1.2766
N745 X-2.7318 Y0.2292 Z-1.2815
N750 X-2.7295 Y0.2315 Z-1.286
N755 X-2.7269 Y0.2341 Z-1.2902
N760 X-2.7239 Y0.2371 Z-1.2939
N765 X-2.7207 Y0.2403 Z-1.2972
N770 X-2.7172 Y0.2438 Z-1.2999
N775 X-2.7136 Y0.2474 Z-1.3021
N780 X-2.7098 Y0.2513 Z-1.3036
N785 X-2.7059 Y0.2552 Z-1.3045
N790 X-2.7019 Y0.2591 Z-1.3049
N795 G3 X-2.6819 Y0.2929 I-0.056 J0.0559
N800 G2 X-2.6547 Y0.3837 I1.1042 J-0.2811
N805 G3 X-2.6266 Y0.617 I-0.7859 J0.2131
N810 G2 X-2.6073 Y0.7585 I0.554 J-0.0037
N815 X-2.417 Y0.9618 I0.3272 J-0.1156
N820 X-2.1682 Y1.0228 I0.2869 J-0.6322
N825 G3 X-2.0988 Y1.0399 I-0.0095 J0.1879
N830 G2 X-2.0127 Y1.0822 I0.5023 J-0.9129
N835 G3 X-1.9911 Y1.0963 I-0.0424 J0.0888
N840 G1 X-1.991
N845 G3 X-1.9815 Y1.1057 I-0.064 J0.0747
N850 G1 X-1.9799 Y1.1075 F300.
N855 X-1.9798 Y1.1077
N860 G3 X-2.0923 Y1.2622 I-0.0753 J0.0634
N865 G1 X-2.4902 Y1.0963
N870 X-2.5654 Y1.0513
N875 X-2.6322 Y0.9949
N880 X-2.6809 Y0.9389
N885 X-2.7174 Y0.8827
N890 X-2.7471 Y0.8152
N895 X-2.7566 Y0.7815
N900 X-2.8073 Y0.4217
N905 G3 X-2.677 Y0.3519 I0.0785 J-0.01
N910 X-2.6547 Y0.3837 I-0.0518 J0.0598 F72.
N915 G2 X-2.625 Y0.4616 I1.08 J-0.3684
N920 G3 X-2.5924 Y0.6254 I-0.5561 J0.1958
N925 G2 X-2.5167 Y0.8088 I0.3892 J-0.0531
N930 X-2.2764 Y0.9553 I0.3404 J-0.288
N935 G3 X-2.2033 Y0.9771 I-0.1565 J0.659
N940 G1 X-2.19 Y0.9852
N945 G2 X-2.0989 Y1.0401 I0.6419 J-0.9643
N950 G1 X-2.0923 Y1.0444
N955 X-2.0861 Y1.0492
N960 X-2.0803 Y1.0545
N965 X-2.075 Y1.0602
N970 X-2.0701 Y1.0663
N975 G3 X-2.2048 Y1.2059 I-0.0794 J0.0582 F300.
N980 G1 X-2.5837 Y0.9597
N985 X-2.6329 Y0.9052
N990 X-2.6825 Y0.8292
N995 X-2.7066 Y0.7815
N1000 X-2.774 Y0.5116
N1005 G3 X-2.6496 Y0.4315 I0.0774 J-0.0165
N1010 X-2.625 Y0.4616 I-0.0471 J0.0636 F72.
N1015 G2 X-2.5938 Y0.5291 I1.0694 J-0.4526
N1020 G3 X-2.5591 Y0.6259 I-0.7891 J0.3378
N1025 G2 X-2.3256 Y0.8827 I0.4021 J-0.131
N1030 G1 X-2.3159 Y0.8898
N1035 X-2.3066 Y0.8971
N1040 G2 X-2.1901 Y0.9853 I0.7625 J-0.8874
N1045 G3 X-2.1633 Y1.0136 I-0.058 J0.0815
N1050 X-2.3229 Y1.133 I-0.0848 J0.0531 F300.
N1055 G1 X-2.7564 Y0.6433
N1060 G3 X-2.6189 Y0.4991 I0.0749 J-0.0663
N1065 X-2.5938 Y0.529 I-0.0627 J0.0779 F72.
N1070 G2 X-2.3066 Y0.8971 I1.057 J-0.5286
N1075 G3 X-2.2838 Y0.9287 I-0.0681 J0.0732
N1080 G1 X-2.2815 Y0.9338 Z-1.3045
N1085 X-2.2792 Y0.9389 Z-1.3036
N1090 X-2.2769 Y0.9438 Z-1.3021
N1095 X-2.2748 Y0.9485 Z-1.2999
N1100 X-2.2727 Y0.9529 Z-1.2972
N1105 X-2.2708 Y0.9571 Z-1.2939
N1110 X-2.2691 Y0.9609 Z-1.2902
N1115 X-2.2675 Y0.9643 Z-1.286
N1120 X-2.2662 Y0.9672 Z-1.2815
N1125 X-2.2651 Y0.9697 Z-1.2766
N1130 X-2.2642 Y0.9717 Z-1.2714
N1135 X-2.2635 Y0.9731 Z-1.266
N1140 X-2.2631 Y0.9739 Z-1.2605
N1145 X-2.263 Y0.9742 Z-1.2549
N1150 G0 Z0.105
N1155 X-1.6654 Y-1.215
N1160 Z-1.2049
N1165 G1 Z-1.2549 F72.
N1170 X-1.6656 Y-1.2148 Z-1.2605
N1175 X-1.6663 Y-1.2142 Z-1.266
N1180 X-1.6675 Y-1.2132 Z-1.2714
N1185 X-1.6691 Y-1.2118 Z-1.2766
N1190 X-1.6712 Y-1.21 Z-1.2815
N1195 X-1.6736 Y-1.2079 Z-1.286
N1200 X-1.6765 Y-1.2054 Z-1.2902
N1205 X-1.6796 Y-1.2027 Z-1.2939
N1210 X-1.6831 Y-1.1997 Z-1.2972
N1215 X-1.6868 Y-1.1965 Z-1.2999
N1220 X-1.6908 Y-1.1932 Z-1.3021
N1225 X-1.6949 Y-1.1897 Z-1.3036
N1230 X-1.6991 Y-1.1861 Z-1.3045
N1235 X-1.7033 Y-1.1824 Z-1.3049
N1240 G3 X-1.7385 Y-1.165 I-0.0515 J-0.06
N1245 G2 X-1.8561 Y-1.1384 I0.2059 J1.1823
N1250 G3 X-2.1094 Y-1.1154 I-0.2208 J-1.0232
N1255 X-2.3671 Y-1.1122 I-0.2384 J-8.9883
N1260 G2 X-2.5739 Y-0.9744 I0.032 J0.272
N1265 X-2.6426 Y-0.7579 I0.4444 J0.2602
N1270 X-2.6579 Y-0.4435 I2.2772 J0.2683
N1275 G3 X-2.6614 Y-0.3647 I-0.8204 J0.0034
N1280 G1 X-2.6651 Y-0.3522
N1285 G2 X-2.6993 Y-0.2136 I1.1136 J0.3485
N1290 G3 X-2.7149 Y-0.1778 I-0.0977 J-0.0213
N1295 G1 X-2.7181 Y-0.1732 Z-1.3045
N1300 X-2.7212 Y-0.1687 Z-1.3036
N1305 X-2.7243 Y-0.1643 Z-1.3021
N1310 X-2.7272 Y-0.16 Z-1.2999
N1315 X-2.73 Y-0.156 Z-1.2972
N1320 X-2.7326 Y-0.1522 Z-1.2939
N1325 X-2.735 Y-0.1488 Z-1.2902
N1330 X-2.7372 Y-0.1457 Z-1.286
N1335 X-2.739 Y-0.1431 Z-1.2815
N1340 X-2.7406 Y-0.1408 Z-1.2766
N1345 X-2.7418 Y-0.1391 Z-1.2714
N1350 X-2.7427 Y-0.1378 Z-1.266
N1355 X-2.7432 Y-0.137 Z-1.2605
N1360 X-2.7434 Y-0.1368 Z-1.2549
N1365 G0 Z0.105
N1370 X-1.7886 Y-1.1958
N1375 Z-1.2049
N1380 G1 Z-1.2549 F72.
N1385 X-1.7888 Y-1.1956 Z-1.2605
N1390 X-1.7895 Y-1.1949 Z-1.266
N1395 X-1.7905 Y-1.1938 Z-1.2714
N1400 X-1.792 Y-1.1922 Z-1.2766
N1405 X-1.7939 Y-1.1902 Z-1.2815
N1410 X-1.7961 Y-1.1879 Z-1.286
N1415 X-1.7987 Y-1.1851 Z-1.2902
N1420 X-1.8015 Y-1.1821 Z-1.2939
N1425 X-1.8047 Y-1.1788 Z-1.2972
N1430 X-1.808 Y-1.1752 Z-1.2999
N1435 X-1.8116 Y-1.1714 Z-1.3021
N1440 X-1.8153 Y-1.1675 Z-1.3036
N1445 X-1.8191 Y-1.1635 Z-1.3045
N1450 X-1.8229 Y-1.1594 Z-1.3049
N1455 G3 X-1.8561 Y-1.1384 I-0.0576 J-0.0542
N1460 G2 X-1.946 Y-1.1092 I0.3334 J1.1821
N1465 G3 X-2.1534 Y-1.0803 I-0.1991 J-0.6686
N1470 G2 X-2.2965 Y-1.0745 I0.5692 J15.9056
N1475 X-2.5419 Y-0.8992 I0.0339 J0.3067
N1480 X-2.6009 Y-0.7088 I0.4813 J0.2537
N1485 X-2.6188 Y-0.4843 I1.7131 J0.2492
N1490 G1 X-2.6229 Y-0.4692
N1495 X-2.6279 Y-0.4545
N1500 G2 X-2.6651 Y-0.3522 I1.0554 J0.4417
N1505 G3 X-2.685 Y-0.3187 I-0.0943 J-0.0333
N1510 G1 X-2.6887 Y-0.3145 Z-1.3045
N1515 X-2.6924 Y-0.3104 Z-1.3036
N1520 X-2.696 Y-0.3064 Z-1.3021
N1525 X-2.6995 Y-0.3026 Z-1.2999
N1530 X-2.7028 Y-0.2989 Z-1.2972
N1535 X-2.7058 Y-0.2955 Z-1.2939
N1540 X-2.7086 Y-0.2924 Z-1.2902
N1545 X-2.7111 Y-0.2896 Z-1.286
N1550 X-2.7133 Y-0.2872 Z-1.2815
N1555 X-2.7151 Y-0.2852 Z-1.2766
N1560 X-2.7166 Y-0.2836 Z-1.2714
N1565 X-2.7176 Y-0.2824 Z-1.266
N1570 X-2.7182 Y-0.2817 Z-1.2605
N1575 X-2.7184 Y-0.2815 Z-1.2549
N1580 G0 Z0.105
N1585 X-1.8835 Y-1.1719
N1590 Z-1.2049
N1595 G1 Z-1.2549 F72.
N1600 X-1.8837 Y-1.1717 Z-1.2605
N1605 X-1.8843 Y-1.171 Z-1.266
N1610 X-1.8852 Y-1.1697 Z-1.2714
N1615 X-1.8866 Y-1.1681 Z-1.2766
N1620 X-1.8883 Y-1.166 Z-1.2815
N1625 X-1.8903 Y-1.1634 Z-1.286
N1630 X-1.8926 Y-1.1605 Z-1.2902
N1635 X-1.8952 Y-1.1572 Z-1.2939
N1640 X-1.8981 Y-1.1537 Z-1.2972
N1645 X-1.9012 Y-1.1498 Z-1.2999
N1650 X-1.9044 Y-1.1458 Z-1.3021
N1655 X-1.9078 Y-1.1416 Z-1.3036
N1660 X-1.9112 Y-1.1372 Z-1.3045
N1665 X-1.9147 Y-1.1329 Z-1.3049
N1670 G3 X-1.9461 Y-1.1092 I-0.0618 J-0.0494
N1675 G2 X-2.0197 Y-1.0791 I0.4234 J1.1405
N1680 G3 X-2.1897 Y-1.0464 I-0.183 J-0.4934
N1685 G2 X-2.3549 Y-1.0036 I0.02 J0.4172
N1690 X-2.5288 Y-0.7844 I0.1932 J0.3318
N1695 X-2.5716 Y-0.5783 I0.7699 J0.2674
N1700 G1 X-2.5773 Y-0.5632
N1705 X-2.5837 Y-0.5488
N1710 G2 X-2.6279 Y-0.4545 I1.0248 J0.5377
N1715 G3 X-2.6507 Y-0.4229 I-0.0897 J-0.0405
N1720 X-2.8079 Y-0.5341 I-0.0669 J-0.0722 F300.
N1725 G1 X-2.6097 Y-0.9656
N1730 X-2.5617 Y-1.0288
N1735 X-2.4926 Y-1.0947
N1740 X-2.4179 Y-1.1413
N1745 X-2.351 Y-1.1702
N1750 X-2.0698 Y-1.2277
N1755 G3 X-1.9902 Y-1.1043 I0.015 J0.0777
N1760 X-2.0197 Y-1.0791 I-0.0646 J-0.0457 F72.
N1765 G2 X-2.081 Y-1.0495 I0.4729 J1.0579
N1770 G3 X-2.1847 Y-1.0171 I-0.1828 J-0.4027
N1775 G2 X-2.4042 Y-0.8904 I0.0811 J0.3941
N1780 X-2.5078 Y-0.6778 I0.407 J0.33
N1785 G1 X-2.5141 Y-0.6661
N1790 X-2.5208 Y-0.6549
N1795 G2 X-2.5837 Y-0.5488 I0.9747 J0.65
N1800 G3 X-2.6093 Y-0.5193 I-0.0856 J-0.0485
N1805 X-2.621 Y-0.5116 I-0.0601 J-0.078 F300.
N1810 X-2.7447 Y-0.534 I-0.0484 J-0.0857
N1815 G1 X-2.7448 Y-0.5341
N1820 G3 X-2.747 Y-0.6577 I0.0754 J-0.0632
N1825 G1 X-2.5242 Y-0.9838
N1830 X-2.4671 Y-1.04
N1835 X-2.4073 Y-1.086
N1840 X-2.3691 Y-1.1075
N1845 X-2.1485 Y-1.1922
N1850 G3 X-2.0529 Y-1.0763 I0.0285 J0.0738
N1855 X-2.078 Y-1.0513 I-0.0671 J-0.042 F72.
N1860 G1 X-2.081 Y-1.0495
N1865 G2 X-2.1485 Y-1.0116 I0.4978 J0.9661
N1870 X-2.2961 Y-0.924 I0.4401 J0.9099
N1875 X-2.4014 Y-0.8048 I0.3459 J0.4114
N1880 G1 X-2.4074 Y-0.7995
N1885 X-2.4137 Y-0.7947
N1890 X-2.4204 Y-0.7905
N1895 X-2.4274 Y-0.7868
N1900 X-2.4347 Y-0.7837
N1905 G3 X-2.5358 Y-0.9538 I-0.038 J-0.0925 F300.
N1910 G1 X-2.2664 Y-1.1729
N1915 G3 X-2.1207 Y-1.0389 I0.0631 J0.0776
N1920 X-2.1485 Y-1.0116 I-0.0826 J-0.0564 F72.
N1925 G2 X-2.5208 Y-0.6549 I0.6115 J1.0108
N1930 G1 X-2.5256 Y-0.6487
N1935 X-2.5308 Y-0.6429
N1940 X-2.5366 Y-0.6375
N1945 X-2.5427 Y-0.6326
N1950 X-2.5491 Y-0.6281
N1955 X-2.5539 Y-0.6252 Z-1.3045
N1960 X-2.5586 Y-0.6222 Z-1.3036
N1965 X-2.5631 Y-0.6194 Z-1.3021
N1970 X-2.5675 Y-0.6166 Z-1.2999
N1975 X-2.5717 Y-0.614 Z-1.2972
N1980 X-2.5756 Y-0.6116 Z-1.2939
N1985 X-2.5791 Y-0.6094 Z-1.2902
N1990 X-2.5823 Y-0.6074 Z-1.286
N1995 X-2.585 Y-0.6057 Z-1.2815
N2000 X-2.5873 Y-0.6042 Z-1.2766
N2005 X-2.5891 Y-0.6031 Z-1.2714
N2010 X-2.5904 Y-0.6022 Z-1.266
N2015 X-2.5912 Y-0.6017 Z-1.2605
N2020 X-2.5915 Y-0.6016 Z-1.2549
N2025 G0 Z0.105
N2030 X1.986 Y1.2175
N2035 Z-1.2049
N2040 G1 Z-1.2549 F72.
N2045 X1.9863 Y1.2173 Z-1.2605
N2050 X1.987 Y1.2167 Z-1.266
N2055 X1.9881 Y1.2157 Z-1.2714
N2060 X1.9898 Y1.2143 Z-1.2766
N2065 X1.9918 Y1.2125 Z-1.2815
N2070 X1.9942 Y1.2103 Z-1.286
N2075 X1.997 Y1.2079 Z-1.2902
N2080 X2.0002 Y1.2051 Z-1.2939
N2085 X2.0036 Y1.2021 Z-1.2972
N2090 X2.0073 Y1.1988 Z-1.2999
N2095 X2.0112 Y1.1954 Z-1.3021
N2100 X2.0152 Y1.1919 Z-1.3036
N2105 X2.0194 Y1.1882 Z-1.3045
N2110 X2.0236 Y1.1845 Z-1.3049
N2115 G3 X2.0586 Y1.1667 I0.0523 J0.0594
N2120 G2 X2.1679 Y1.1401 I-0.1725 J-0.9462
N2125 G3 X2.4001 Y1.1159 I0.2089 J0.8793
N2130 G2 X2.6234 Y0.9569 I-0.0291 J-0.2772
N2135 X2.6777 Y0.7821 I-0.4426 J-0.2333
N2140 G1 X2.6813 Y0.767
N2145 X2.6863 Y0.7523
N2150 X2.6931 Y0.7383
N2155 G2 X2.7151 Y0.6005 I-0.1802 J-0.0994
N2160 G3 X2.699 Y0.3266 I1.4968 J-0.2255
N2165 X2.6973 Y-0.103 I20.1975 J-0.295
N2170 G1 Y-0.7902
N2175 G2 X2.5853 Y-1.0107 I-0.2586 J-0.0072
N2180 X2.3735 Y-1.0914 I-0.2634 J0.3728
N2185 X2.2598 Y-1.1046 I-0.1576 J0.8631
N2190 X1.7731 Y-1.1116 I-0.3545 J7.7853
N2195 G1 X1.6872 Y-1.1124
N2200 X1.5154 Y-1.1125
N2205 X1.1431
N2210 G3 X1.0556 Y-1.1206 I-0.0205 J-0.2545
N2215 G1 X1.039 Y-1.1289
N2220 X1.0237 Y-1.1393
N2225 X1.0184 Y-1.1431
N2230 G3 X0.9927 Y-1.1724 I0.0609 J-0.0793
N2235 G1 X0.9899 Y-1.1773 Z-1.3045
N2240 X0.9871 Y-1.182 Z-1.3036
N2245 X0.9844 Y-1.1867 Z-1.3021
N2250 X0.9818 Y-1.1912 Z-1.2999
N2255 X0.9794 Y-1.1955 Z-1.2972
N2260 X0.9771 Y-1.1994 Z-1.2939
N2265 X0.975 Y-1.203 Z-1.2902
N2270 X0.9731 Y-1.2063 Z-1.286
N2275 X0.9715 Y-1.2091 Z-1.2815
N2280 X0.9701 Y-1.2114 Z-1.2766
N2285 X0.9691 Y-1.2133 Z-1.2714
N2290 X0.9683 Y-1.2146 Z-1.266
N2295 X0.9678 Y-1.2154 Z-1.2605
N2300 X0.9677 Y-1.2157 Z-1.2549
N2305 G0 Z0.105
N2310 X2.7686 Y0.6712
N2315 Z-1.2049
N2320 G1 Z-1.2549 F72.
N2325 X2.7684 Y0.671 Z-1.2605
N2330 X2.7677 Y0.6703 Z-1.266
N2335 X2.7666 Y0.6692 Z-1.2714
N2340 X2.7652 Y0.6676 Z-1.2766
N2345 X2.7633 Y0.6656 Z-1.2815
N2350 X2.7611 Y0.6633 Z-1.286
N2355 X2.7585 Y0.6606 Z-1.2902
N2360 X2.7556 Y0.6575 Z-1.2939
N2365 X2.7525 Y0.6542 Z-1.2972
N2370 X2.7491 Y0.6506 Z-1.2999
N2375 X2.7456 Y0.6469 Z-1.3021
N2380 X2.7419 Y0.643 Z-1.3036
N2385 X2.7381 Y0.6389 Z-1.3045
N2390 X2.7342 Y0.6349 Z-1.3049
N2395 G3 X2.7151 Y0.6005 I0.0575 J-0.0544
N2400 G2 X2.6987 Y0.5502 I-0.1975 J0.0366
N2405 G3 X2.6672 Y0.3791 I0.4556 J-0.1723
N2410 X2.6606 Y0.0356 I4.6798 J-0.2625
N2415 G1 X2.6599 Y-0.0216
N2420 X2.6598 Y-0.0789
N2425 Y-0.1935
N2430 Y-0.4512
N2435 Y-0.6803
N2440 G2 X2.643 Y-0.8217 I-0.3966 J-0.0246
N2445 X2.4433 Y-1.0144 I-0.3091 J0.1205
N2450 X2.2204 Y-1.0628 I-0.2574 J0.6485
N2455 G1 X2.1919 Y-1.0658
N2460 X2.1633 Y-1.0677
N2465 X2.1347 Y-1.0692
N2470 G2 X1.4762 Y-1.075 I-0.4887 J18.2345
N2475 G1 X1.2185
N2480 G3 X1.1113 Y-1.0802 I-0.0253 J-0.5768
N2485 X1.051 Y-1.1149 I0.0371 J-0.1344
N2490 G1 X1.0462 Y-1.1198
N2495 X1.0349 Y-1.1303
N2500 X1.0237 Y-1.1393
N2505 G3 X0.9996 Y-1.1701 I0.0652 J-0.0758
N2510 G1 X0.9971 Y-1.175 Z-1.3045
N2515 X0.9946 Y-1.18 Z-1.3036
N2520 X0.9921 Y-1.1848 Z-1.3021
N2525 X0.9898 Y-1.1894 Z-1.2999
N2530 X0.9876 Y-1.1938 Z-1.2972
N2535 X0.9855 Y-1.1979 Z-1.2939
N2540 X0.9836 Y-1.2016 Z-1.2902
N2545 X0.982 Y-1.2049 Z-1.286
N2550 X0.9805 Y-1.2078 Z-1.2815
N2555 X0.9793 Y-1.2103 Z-1.2766
N2560 X0.9783 Y-1.2122 Z-1.2714
N2565 X0.9776 Y-1.2136 Z-1.266
N2570 X0.9772 Y-1.2144 Z-1.2605
N2575 X0.977 Y-1.2147 Z-1.2549
N2580 G0 Z0.105
N2585 X2.7665 Y0.6073
N2590 Z-1.2049
N2595 G1 Z-1.2549 F72.
N2600 X2.7663 Y0.6071 Z-1.2605
N2605 X2.7655 Y0.6066 Z-1.266
N2610 X2.7642 Y0.6057 Z-1.2714
N2615 X2.7624 Y0.6045 Z-1.2766
N2620 X2.7601 Y0.603 Z-1.2815
N2625 X2.7574 Y0.6012 Z-1.286
N2630 X2.7543 Y0.5991 Z-1.2902
N2635 X2.7509 Y0.5968 Z-1.2939
N2640 X2.7471 Y0.5943 Z-1.2972
N2645 X2.743 Y0.5915 Z-1.2999
N2650 X2.7387 Y0.5887 Z-1.3021
N2655 X2.7342 Y0.5857 Z-1.3036
N2660 X2.7296 Y0.5826 Z-1.3045
N2665 X2.7249 Y0.5795 Z-1.3049
N2670 G3 X2.6987 Y0.5502 I0.044 J-0.0658
N2675 G2 X2.6799 Y0.5183 I-0.1657 J0.0763
N2680 G3 X2.641 Y0.3972 I0.2561 J-0.1491
N2685 X2.6247 Y0.1426 I1.572 J-0.2279
N2690 X2.6223 Y-0.3442 I22.3777 J-0.3551
N2695 G1 Y-0.6019
N2700 G2 X2.6016 Y-0.7715 I-0.4718 J-0.0285
N2705 X2.4039 Y-0.9678 I-0.3268 J0.1314
N2710 X2.1539 Y-1.0245 I-0.2842 J0.6743
N2715 X2.011 Y-1.0333 I-0.1699 J1.5942
N2720 X1.4956 Y-1.0374 I-0.4061 J18.4784
N2725 G1 X1.2951 Y-1.0375
N2730 G3 X1.1595 Y-1.0421 I-0.0304 J-1.099
N2735 X1.0869 Y-1.079 I0.0219 J-0.1329
N2740 G1 X1.051 Y-1.1149
N2745 G3 X1.0305 Y-1.1481 I0.0731 J-0.0682
N2750 G1 X1.0285 Y-1.1533 Z-1.3045
N2755 X1.0266 Y-1.1585 Z-1.3036
N2760 X1.0247 Y-1.1636 Z-1.3021
N2765 X1.0229 Y-1.1684 Z-1.2999
N2770 X1.0212 Y-1.173 Z-1.2972
N2775 X1.0196 Y-1.1773 Z-1.2939
N2780 X1.0181 Y-1.1812 Z-1.2902
N2785 X1.0168 Y-1.1847 Z-1.286
N2790 X1.0157 Y-1.1878 Z-1.2815
N2795 X1.0147 Y-1.1903 Z-1.2766
N2800 X1.014 Y-1.1923 Z-1.2714
N2805 X1.0134 Y-1.1938 Z-1.266
N2810 X1.0131 Y-1.1946 Z-1.2605
N2815 X1.013 Y-1.1949 Z-1.2549
N2820 G0 Z0.105
N2825 X2.7564 Y0.563
N2830 Z-1.2049
N2835 G1 Z-1.2549 F72.
N2840 X2.7561 Y0.5628 Z-1.2605
N2845 X2.7552 Y0.5625 Z-1.266
N2850 X2.7538 Y0.5618 Z-1.2714
N2855 X2.7519 Y0.561 Z-1.2766
N2860 X2.7494 Y0.5599 Z-1.2815
N2865 X2.7464 Y0.5585 Z-1.286
N2870 X2.743 Y0.557 Z-1.2902
N2875 X2.7392 Y0.5553 Z-1.2939
N2880 X2.735 Y0.5535 Z-1.2972
N2885 X2.7305 Y0.5515 Z-1.2999
N2890 X2.7258 Y0.5494 Z-1.3021
N2895 X2.7209 Y0.5472 Z-1.3036
N2900 X2.7158 Y0.5449 Z-1.3045
N2905 X2.7107 Y0.5427 Z-1.3049
N2910 G3 X2.6799 Y0.5183 I0.0321 J-0.0723
N2915 G1 X2.6751 Y0.5116
N2920 X2.666 Y0.5007
N2925 X2.6613 Y0.4957
N2930 G3 X2.6148 Y0.3908 I0.1793 J-0.1422
N2935 X2.5896 Y0.1549 I1.0114 J-0.2271
N2940 X2.5855 Y-0.3605 I12.7714 J-0.3604
N2945 G2 X2.5831 Y-0.6182 I-5.9898 J-0.0732
N2950 X2.3848 Y-0.9127 I-0.3494 J0.0211
N2955 X2.1382 Y-0.9817 I-0.2975 J0.5885
N2960 X1.9097 Y-0.9966 I-0.2521 J2.1089
N2965 X1.2798 Y-0.9998 I-0.4583 J28.2798
N2970 G3 X1.1798 Y-1.009 I0.0006 J-0.555
N2975 X1.1234 Y-1.0425 I0.0407 J-0.1327
N2980 G1 X1.0869 Y-1.0791
N2985 G3 X1.0664 Y-1.1122 I0.0731 J-0.0682
N2990 G1 X1.0644 Y-1.1175 Z-1.3045
N2995 X1.0625 Y-1.1227 Z-1.3036
N3000 X1.0606 Y-1.1277 Z-1.3021
N3005 X1.0588 Y-1.1326 Z-1.2999
N3010 X1.057 Y-1.1372 Z-1.2972
N3015 X1.0554 Y-1.1414 Z-1.2939
N3020 X1.054 Y-1.1454 Z-1.2902
N3025 X1.0527 Y-1.1489 Z-1.286
N3030 X1.0515 Y-1.1519 Z-1.2815
N3035 X1.0506 Y-1.1544 Z-1.2766
N3040 X1.0498 Y-1.1564 Z-1.2714
N3045 X1.0493 Y-1.1579 Z-1.266
N3050 X1.049 Y-1.1588 Z-1.2605
N3055 X1.0488 Y-1.1591 Z-1.2549
N3060 G0 Z0.105
N3065 X2.7433 Y0.529
N3070 Z-1.2049
N3075 G1 Z-1.2549 F72.
N3080 X2.743 Y0.5289 Z-1.2605
N3085 X2.7421 Y0.5287 Z-1.266
N3090 X2.7406 Y0.5282 Z-1.2714
N3095 X2.7386 Y0.5277 Z-1.2766
N3100 X2.736 Y0.5269 Z-1.2815
N3105 X2.7328 Y0.526 Z-1.286
N3110 X2.7293 Y0.525 Z-1.2902
N3115 X2.7252 Y0.5239 Z-1.2939
N3120 X2.7208 Y0.5226 Z-1.2972
N3125 X2.7161 Y0.5213 Z-1.2999
N3130 X2.7111 Y0.5199 Z-1.3021
N3135 X2.7059 Y0.5184 Z-1.3036
N3140 X2.7006 Y0.5169 Z-1.3045
N3145 X2.6952 Y0.5154 Z-1.3049
N3150 G3 X2.6613 Y0.4957 I0.0215 J-0.0761
N3155 G1 X2.6551 Y0.4891
N3160 X2.6348 Y0.4689
N3165 G3 X2.5829 Y0.3614 I0.1785 J-0.1526
N3170 X2.555 Y0.1594 I0.8301 J-0.2173
N3175 X2.5483 Y-0.3559 I8.9556 J-0.3748
N3180 G2 X2.5433 Y-0.5849 I-3.0105 J-0.0489
N3185 X2.3349 Y-0.8743 I-0.364 J0.0424
N3190 X2.0881 Y-0.943 I-0.3035 J0.6126
N3195 X1.8024 Y-0.9598 I-0.2918 J2.5208
N3200 X1.3156 Y-0.9626 I-0.4194 J30.6279
N3205 G3 X1.2005 Y-0.9774 I-0.0085 J-0.39
N3210 G1 X1.1861 Y-0.9856
N3215 X1.1726 Y-0.9948
N3220 X1.1603 Y-1.0056
N3225 X1.1234 Y-1.0425
N3230 G3 X1.1029 Y-1.0757 I0.0731 J-0.0682
N3235 G1 X1.1009 Y-1.081 Z-1.3045
N3240 X1.099 Y-1.0861 Z-1.3036
N3245 X1.0971 Y-1.0912 Z-1.3021
N3250 X1.0953 Y-1.096 Z-1.2999
N3255 X1.0936 Y-1.1006 Z-1.2972
N3260 X1.092 Y-1.1049 Z-1.2939
N3265 X1.0905 Y-1.1088 Z-1.2902
N3270 X1.0892 Y-1.1123 Z-1.286
N3275 X1.0881 Y-1.1154 Z-1.2815
N3280 X1.0871 Y-1.1179 Z-1.2766
N3285 X1.0864 Y-1.1199 Z-1.2714
N3290 X1.0858 Y-1.1214 Z-1.266
N3295 X1.0855 Y-1.1222 Z-1.2605
N3300 X1.0854 Y-1.1225 Z-1.2549
N3305 G0 Z0.105
N3310 X2.7177 Y0.5
N3315 Z-1.2049
N3320 G1 Z-1.2549 F72.
N3325 X2.7174 Y0.4999 Z-1.2605
N3330 X2.7165 Y0.4997 Z-1.266
N3335 X2.715 Y0.4993 Z-1.2714
N3340 X2.7129 Y0.4988 Z-1.2766
N3345 X2.7103 Y0.4981 Z-1.2815
N3350 X2.7072 Y0.4973 Z-1.286
N3355 X2.7035 Y0.4964 Z-1.2902
N3360 X2.6995 Y0.4954 Z-1.2939
N3365 X2.695 Y0.4942 Z-1.2972
N3370 X2.6903 Y0.493 Z-1.2999
N3375 X2.6853 Y0.4917 Z-1.3021
N3380 X2.6801 Y0.4904 Z-1.3036
N3385 X2.6747 Y0.4891 Z-1.3045
N3390 X2.6693 Y0.4877 Z-1.3049
N3395 G3 X2.6348 Y0.4689 I0.0195 J-0.0767
N3400 G1 X2.6038 Y0.4378
N3405 G3 X2.5474 Y0.3223 I0.1891 J-0.1638
N3410 X2.517 Y0.0878 I0.9363 J-0.2405
N3415 X2.5106 Y-0.4276 I9.9868 J-0.3829
N3420 G2 X2.4992 Y-0.5702 I-0.8832 J-0.0015
N3425 X2.295 Y-0.8318 I-0.3686 J0.0772
N3430 X2.049 Y-0.9033 I-0.3101 J0.6076
N3435 X1.7348 Y-0.9219 I-0.2978 J2.3648
N3440 G1 X1.7062 Y-0.923
N3445 G3 X1.31 Y-0.9267 I0.2946 J-53.4184
N3450 X1.2289 Y-0.9449 I0.011 J-0.2392
N3455 G1 X1.2124 Y-0.9557
N3460 X1.1975 Y-0.9685
N3465 X1.1603 Y-1.0056
N3470 G3 X1.1398 Y-1.0388 I0.0731 J-0.0682
N3475 G1 X1.1378 Y-1.0441 Z-1.3045
N3480 X1.1359 Y-1.0492 Z-1.3036
N3485 X1.134 Y-1.0543 Z-1.3021
N3490 X1.1322 Y-1.0591 Z-1.2999
N3495 X1.1305 Y-1.0637 Z-1.2972
N3500 X1.1289 Y-1.068 Z-1.2939
N3505 X1.1274 Y-1.0719 Z-1.2902
N3510 X1.1261 Y-1.0754 Z-1.286
N3515 X1.125 Y-1.0785 Z-1.2815
N3520 X1.124 Y-1.081 Z-1.2766
N3525 X1.1232 Y-1.083 Z-1.2714
N3530 X1.1227 Y-1.0845 Z-1.266
N3535 X1.1224 Y-1.0854 Z-1.2605
N3540 X1.1223 Y-1.0857 Z-1.2549
N3545 G0 Z0.105
N3550 X2.6867 Y0.469
N3555 Z-1.2049
N3560 G1 Z-1.2549 F72.
N3565 X2.6864 Y0.4689 Z-1.2605
N3570 X2.6855 Y0.4686 Z-1.266
N3575 X2.684 Y0.4683 Z-1.2714
N3580 X2.6819 Y0.4677 Z-1.2766
N3585 X2.6793 Y0.4671 Z-1.2815
N3590 X2.6761 Y0.4663 Z-1.286
N3595 X2.6725 Y0.4653 Z-1.2902
N3600 X2.6684 Y0.4643 Z-1.2939
N3605 X2.664 Y0.4632 Z-1.2972
N3610 X2.6593 Y0.462 Z-1.2999
N3615 X2.6542 Y0.4607 Z-1.3021
N3620 X2.649 Y0.4594 Z-1.3036
N3625 X2.6437 Y0.458 Z-1.3045
N3630 X2.6382 Y0.4566 Z-1.3049
N3635 G3 X2.6038 Y0.4378 I0.0195 J-0.0767
N3640 G1 X2.57 Y0.4041
N3645 G3 X2.5114 Y0.2837 I0.1979 J-0.1708
N3650 X2.4802 Y0.0469 I0.9525 J-0.2462
N3655 X2.4728 Y-0.4112 I8.7452 J-0.3696
N3660 G2 X2.445 Y-0.5802 I-0.5863 J0.0096
N3665 X2.2325 Y-0.8016 I-0.3717 J0.1441
N3670 X1.9561 Y-0.8702 I-0.3235 J0.712
N3675 X1.6416 Y-0.885 I-0.2922 J2.8714
N3680 G1 X1.613 Y-0.8859
N3685 X1.5844 Y-0.8862
N3690 G3 X1.3203 Y-0.8919 I-0.0372 J-4.3776
N3695 X1.2345 Y-0.931 I0.0156 J-0.1481
N3700 G1 X1.1975 Y-0.9685
N3705 G3 X1.177 Y-1.0016 I0.0731 J-0.0682
N3710 G1 X1.175 Y-1.0069 Z-1.3045
N3715 X1.1731 Y-1.0121 Z-1.3036
N3720 X1.1712 Y-1.0171 Z-1.3021
N3725 X1.1694 Y-1.022 Z-1.2999
N3730 X1.1676 Y-1.0266 Z-1.2972
N3735 X1.166 Y-1.0308 Z-1.2939
N3740 X1.1646 Y-1.0348 Z-1.2902
N3745 X1.1633 Y-1.0383 Z-1.286
N3750 X1.1621 Y-1.0413 Z-1.2815
N3755 X1.1612 Y-1.0438 Z-1.2766
N3760 X1.1604 Y-1.0458 Z-1.2714
N3765 X1.1599 Y-1.0473 Z-1.266
N3770 X1.1596 Y-1.0482 Z-1.2605
N3775 X1.1594 Y-1.0485 Z-1.2549
N3780 G0 Z0.105
N3785 X2.653 Y0.4352
N3790 Z-1.2049
N3795 G1 Z-1.2549 F72.
N3800 X2.6526 Y0.4351 Z-1.2605
N3805 X2.6517 Y0.4349 Z-1.266
N3810 X2.6502 Y0.4345 Z-1.2714
N3815 X2.6482 Y0.434 Z-1.2766
N3820 X2.6455 Y0.4333 Z-1.2815
N3825 X2.6424 Y0.4325 Z-1.286
N3830 X2.6388 Y0.4316 Z-1.2902
N3835 X2.6347 Y0.4306 Z-1.2939
N3840 X2.6303 Y0.4295 Z-1.2972
N3845 X2.6255 Y0.4282 Z-1.2999
N3850 X2.6205 Y0.427 Z-1.3021
N3855 X2.6153 Y0.4256 Z-1.3036
N3860 X2.6099 Y0.4243 Z-1.3045
N3865 X2.6045 Y0.4229 Z-1.3049
N3870 G3 X2.57 Y0.4041 I0.0195 J-0.0767
N3875 G1 X2.5348 Y0.3689
N3880 G3 X2.4751 Y0.2457 I0.2051 J-0.1755
N3885 X2.4432 Y0.007 I0.9708 J-0.2513
N3890 X2.4347 Y-0.3651 I9.5368 J-0.4044
N3895 G2 X2.3965 Y-0.5607 I-0.5268 J0.0013
N3900 X2.1715 Y-0.7705 I-0.3777 J0.1796
N3905 X1.8936 Y-0.8338 I-0.3243 J0.7827
N3910 X1.5218 Y-0.8481 I-0.3277 J3.6695
N3915 G1 X1.4931 Y-0.8492
N3920 X1.4645 Y-0.8497
N3925 G3 X1.3279 Y-0.8601 I-0.0119 J-0.7434
N3930 X1.2722 Y-0.8937 I0.0451 J-0.1379
N3935 G1 X1.2347 Y-0.9312
N3940 G3 X1.2142 Y-0.9644 I0.0731 J-0.0682
N3945 G1 X1.2122 Y-0.9696 Z-1.3045
N3950 X1.2103 Y-0.9748 Z-1.3036
N3955 X1.2084 Y-0.9799 Z-1.3021
N3960 X1.2066 Y-0.9847 Z-1.2999
N3965 X1.2049 Y-0.9893 Z-1.2972
N3970 X1.2033 Y-0.9936 Z-1.2939
N3975 X1.2018 Y-0.9975 Z-1.2902
N3980 X1.2005 Y-1.001 Z-1.286
N3985 X1.1994 Y-1.004 Z-1.2815
N3990 X1.1984 Y-1.0066 Z-1.2766
N3995 X1.1977 Y-1.0086 Z-1.2714
N4000 X1.1971 Y-1.01 Z-1.266
N4005 X1.1968 Y-1.0109 Z-1.2605
N4010 X1.1967 Y-1.0112 Z-1.2549
N4015 G0 Z0.105
N4020 X2.6177 Y0.4
N4025 Z-1.2049
N4030 G1 Z-1.2549 F72.
N4035 X2.6174 Y0.3999 Z-1.2605
N4040 X2.6165 Y0.3997 Z-1.266
N4045 X2.615 Y0.3993 Z-1.2714
N4050 X2.6129 Y0.3988 Z-1.2766
N4055 X2.6103 Y0.3981 Z-1.2815
N4060 X2.6072 Y0.3973 Z-1.286
N4065 X2.6035 Y0.3964 Z-1.2902
N4070 X2.5995 Y0.3954 Z-1.2939
N4075 X2.5951 Y0.3942 Z-1.2972
N4080 X2.5903 Y0.393 Z-1.2999
N4085 X2.5853 Y0.3917 Z-1.3021
N4090 X2.5801 Y0.3904 Z-1.3036
N4095 X2.5747 Y0.3891 Z-1.3045
N4100 X2.5693 Y0.3877 Z-1.3049
N4105 G3 X2.5348 Y0.3689 I0.0195 J-0.0767
N4110 G1 X2.4999 Y0.3339
N4115 G3 X2.4386 Y0.2079 I0.2078 J-0.1788
N4120 X2.4077 Y-0.0037 I0.892 J-0.2384
N4125 X2.398 Y-0.3185 I5.5759 J-0.3306
N4130 G2 X2.3597 Y-0.5142 I-0.5668 J0.0091
N4135 X2.1115 Y-0.7386 I-0.3895 J0.1814
N4140 X1.8609 Y-0.7946 I-0.3092 J0.7945
N4145 X1.4892 Y-0.8109 I-0.3498 J3.7367
N4150 G3 X1.3633 Y-0.8225 I0.0194 J-0.8975
N4155 X1.3224 Y-0.8436 I0.0147 J-0.0789
N4160 G1 X1.2722 Y-0.8937
N4165 G3 X1.2517 Y-0.9269 I0.0731 J-0.0682
N4170 G1 X1.2497 Y-0.9322 Z-1.3045
N4175 X1.2478 Y-0.9373 Z-1.3036
N4180 X1.2459 Y-0.9424 Z-1.3021
N4185 X1.2441 Y-0.9472 Z-1.2999
N4190 X1.2424 Y-0.9518 Z-1.2972
N4195 X1.2408 Y-0.9561 Z-1.2939
N4200 X1.2393 Y-0.96 Z-1.2902
N4205 X1.238 Y-0.9635 Z-1.286
N4210 X1.2369 Y-0.9666 Z-1.2815
N4215 X1.2359 Y-0.9691 Z-1.2766
N4220 X1.2352 Y-0.9711 Z-1.2714
N4225 X1.2346 Y-0.9726 Z-1.266
N4230 X1.2343 Y-0.9735 Z-1.2605
N4235 X1.2342 Y-0.9737 Z-1.2549
N4240 G0 Z0.105
N4245 X2.5828 Y0.3651
N4250 Z-1.2049
N4255 G1 Z-1.2549 F72.
N4260 X2.5825 Y0.365 Z-1.2605
N4265 X2.5816 Y0.3647 Z-1.266
N4270 X2.5801 Y0.3644 Z-1.2714
N4275 X2.578 Y0.3638 Z-1.2766
N4280 X2.5754 Y0.3632 Z-1.2815
N4285 X2.5722 Y0.3624 Z-1.286
N4290 X2.5686 Y0.3614 Z-1.2902
N4295 X2.5645 Y0.3604 Z-1.2939
N4300 X2.5601 Y0.3593 Z-1.2972
N4305 X2.5554 Y0.3581 Z-1.2999
N4310 X2.5503 Y0.3568 Z-1.3021
N4315 X2.5451 Y0.3555 Z-1.3036
N4320 X2.5398 Y0.3541 Z-1.3045
N4325 X2.5343 Y0.3527 Z-1.3049
N4330 G3 X2.4999 Y0.3339 I0.0195 J-0.0767
N4335 G1 X2.4639 Y0.298
N4340 G3 X2.402 Y0.1702 I0.2113 J-0.1814
N4345 X2.3707 Y-0.0425 I0.9018 J-0.2413
N4350 X2.3599 Y-0.3 I7.5268 J-0.4442
N4355 G2 X2.3114 Y-0.4933 I-0.5214 J0.028
N4360 X2.0792 Y-0.6962 I-0.3869 J0.2085
N4365 X1.8009 Y-0.7581 I-0.3304 J0.829
N4370 X1.4864 Y-0.7741 I-0.3572 J3.9192
N4375 G3 X1.404 Y-0.7841 I0.0294 J-0.5885
N4380 X1.3487 Y-0.8172 I0.0415 J-0.132
N4385 G1 X1.3224 Y-0.8436
N4390 G3 X1.3018 Y-0.8768 I0.0731 J-0.0682
N4395 G1 X1.2999 Y-0.882 Z-1.3045
N4400 X1.2979 Y-0.8872 Z-1.3036
N4405 X1.2961 Y-0.8922 Z-1.3021
N4410 X1.2942 Y-0.8971 Z-1.2999
N4415 X1.2925 Y-0.9017 Z-1.2972
N4420 X1.2909 Y-0.906 Z-1.2939
N4425 X1.2895 Y-0.9099 Z-1.2902
N4430 X1.2882 Y-0.9134 Z-1.286
N4435 X1.287 Y-0.9164 Z-1.2815
N4440 X1.2861 Y-0.919 Z-1.2766
N4445 X1.2853 Y-0.921 Z-1.2714
N4450 X1.2848 Y-0.9224 Z-1.266
N4455 X1.2844 Y-0.9233 Z-1.2605
N4460 X1.2843 Y-0.9236 Z-1.2549
N4465 G0 Z0.105
N4470 X2.5469 Y0.3291
N4475 Z-1.2049
N4480 G1 Z-1.2549 F72.
N4485 X2.5466 Y0.329 Z-1.2605
N4490 X2.5456 Y0.3288 Z-1.266
N4495 X2.5441 Y0.3284 Z-1.2714
N4500 X2.5421 Y0.3279 Z-1.2766
N4505 X2.5394 Y0.3272 Z-1.2815
N4510 X2.5363 Y0.3264 Z-1.286
N4515 X2.5327 Y0.3255 Z-1.2902
N4520 X2.5286 Y0.3245 Z-1.2939
N4525 X2.5242 Y0.3234 Z-1.2972
N4530 X2.5194 Y0.3221 Z-1.2999
N4535 X2.5144 Y0.3209 Z-1.3021
N4540 X2.5092 Y0.3195 Z-1.3036
N4545 X2.5038 Y0.3182 Z-1.3045
N4550 X2.4984 Y0.3168 Z-1.3049
N4555 G3 X2.4639 Y0.298 I0.0195 J-0.0767
N4560 G1 X2.4265 Y0.2606
N4565 G3 X2.3651 Y0.1327 I0.2179 J-0.1833
N4570 X2.3319 Y-0.1094 I1.0064 J-0.2611
N4575 G2 X2.3177 Y-0.3094 I-4.0085 J0.1842
N4580 X2.0479 Y-0.653 I-0.4256 J0.0564
N4585 X1.7991 Y-0.7157 I-0.3192 J0.7423
N4590 X1.5136 Y-0.7356 I-0.3706 J3.2496
N4595 G3 X1.4258 Y-0.7517 I0.0142 J-0.3263
N4600 G1 X1.4119 Y-0.7595
N4605 X1.3989 Y-0.7684
N4610 X1.3871 Y-0.7789
N4615 X1.3487 Y-0.8173
N4620 G3 X1.3282 Y-0.8504 I0.0731 J-0.0682
N4625 G1 X1.3262 Y-0.8557 Z-1.3045
N4630 X1.3243 Y-0.8609 Z-1.3036
N4635 X1.3224 Y-0.8659 Z-1.3021
N4640 X1.3206 Y-0.8708 Z-1.2999
N4645 X1.3188 Y-0.8754 Z-1.2972
N4650 X1.3172 Y-0.8796 Z-1.2939
N4655 X1.3158 Y-0.8836 Z-1.2902
N4660 X1.3145 Y-0.8871 Z-1.286
N4665 X1.3133 Y-0.8901 Z-1.2815
N4670 X1.3124 Y-0.8926 Z-1.2766
N4675 X1.3116 Y-0.8946 Z-1.2714
N4680 X1.3111 Y-0.8961 Z-1.266
N4685 X1.3108 Y-0.897 Z-1.2605
N4690 X1.3106 Y-0.8973 Z-1.2549
N4695 G0 Z0.105
N4700 X2.5094 Y0.2917
N4705 Z-1.2049
N4710 G1 Z-1.2549 F72.
N4715 X2.5091 Y0.2916 Z-1.2605
N4720 X2.5082 Y0.2914 Z-1.266
N4725 X2.5067 Y0.291 Z-1.2714
N4730 X2.5046 Y0.2905 Z-1.2766
N4735 X2.502 Y0.2898 Z-1.2815
N4740 X2.4989 Y0.289 Z-1.286
N4745 X2.4952 Y0.2881 Z-1.2902
N4750 X2.4912 Y0.2871 Z-1.2939
N4755 X2.4868 Y0.2859 Z-1.2972
N4760 X2.482 Y0.2847 Z-1.2999
N4765 X2.477 Y0.2834 Z-1.3021
N4770 X2.4718 Y0.2821 Z-1.3036
N4775 X2.4664 Y0.2808 Z-1.3045
N4780 X2.461 Y0.2794 Z-1.3049
N4785 G3 X2.4265 Y0.2606 I0.0195 J-0.0767
N4790 G1 X2.3901 Y0.2241
N4795 G3 X2.3282 Y0.0952 I0.2195 J-0.1848
N4800 X2.2962 Y-0.1188 I0.94 J-0.2498
N4805 G2 X2.2716 Y-0.3175 I-1.4119 J0.0736
N4810 X2.018 Y-0.6099 I-0.4215 J0.1095
N4815 X1.7701 Y-0.676 I-0.3264 J0.7251
N4820 X1.5201 Y-0.6987 I-0.4836 J3.9459
N4825 G3 X1.4407 Y-0.7267 I0.0177 J-0.1766
N4830 G1 X1.4266 Y-0.7393
N4835 X1.3871 Y-0.7789
N4840 G3 X1.3665 Y-0.8121 I0.0731 J-0.0682
N4845 G1 X1.3646 Y-0.8173 Z-1.3045
N4850 X1.3626 Y-0.8225 Z-1.3036
N4855 X1.3607 Y-0.8275 Z-1.3021
N4860 X1.3589 Y-0.8324 Z-1.2999
N4865 X1.3572 Y-0.837 Z-1.2972
N4870 X1.3556 Y-0.8413 Z-1.2939
N4875 X1.3541 Y-0.8452 Z-1.2902
N4880 X1.3528 Y-0.8487 Z-1.286
N4885 X1.3517 Y-0.8517 Z-1.2815
N4890 X1.3507 Y-0.8543 Z-1.2766
N4895 X1.35 Y-0.8563 Z-1.2714
N4900 X1.3494 Y-0.8577 Z-1.266
N4905 X1.3491 Y-0.8586 Z-1.2605
N4910 X1.349 Y-0.8589 Z-1.2549
N4915 G0 Z0.105
N4920 X2.473 Y0.2553
N4925 Z-1.2049
N4930 G1 Z-1.2549 F72.
N4935 X2.4727 Y0.2552 Z-1.2605
N4940 X2.4718 Y0.255 Z-1.266
N4945 X2.4703 Y0.2546 Z-1.2714
N4950 X2.4682 Y0.2541 Z-1.2766
N4955 X2.4656 Y0.2534 Z-1.2815
N4960 X2.4624 Y0.2526 Z-1.286
N4965 X2.4588 Y0.2517 Z-1.2902
N4970 X2.4548 Y0.2506 Z-1.2939
N4975 X2.4503 Y0.2495 Z-1.2972
N4980 X2.4456 Y0.2483 Z-1.2999
N4985 X2.4406 Y0.247 Z-1.3021
N4990 X2.4353 Y0.2457 Z-1.3036
N4995 X2.43 Y0.2443 Z-1.3045
N5000 X2.4246 Y0.243 Z-1.3049
N5005 G3 X2.3901 Y0.2241 I0.0195 J-0.0767
N5010 G1 X2.3537 Y0.1877
N5015 G3 X2.2912 Y0.0577 I0.2203 J-0.186
N5020 X2.2602 Y-0.1286 I0.9224 J-0.249
N5025 G2 X2.2206 Y-0.3246 I-0.8432 J0.0684
N5030 X1.9624 Y-0.5783 I-0.4192 J0.1684
N5035 X1.7133 Y-0.6403 I-0.3284 J0.7874
N5040 G3 X1.5373 Y-0.6616 I1.4928 J-13.061
N5045 X1.4676 Y-0.6983 I0.0268 J-0.1358
N5050 G1 X1.4266 Y-0.7393
N5055 G3 X1.4061 Y-0.7725 I0.0731 J-0.0682
N5060 G1 X1.4042 Y-0.7777 Z-1.3045
N5065 X1.4022 Y-0.7829 Z-1.3036
N5070 X1.4003 Y-0.7879 Z-1.3021
N5075 X1.3985 Y-0.7928 Z-1.2999
N5080 X1.3968 Y-0.7974 Z-1.2972
N5085 X1.3952 Y-0.8017 Z-1.2939
N5090 X1.3937 Y-0.8056 Z-1.2902
N5095 X1.3924 Y-0.8091 Z-1.286
N5100 X1.3913 Y-0.8121 Z-1.2815
N5105 X1.3903 Y-0.8147 Z-1.2766
N5110 X1.3896 Y-0.8167 Z-1.2714
N5115 X1.389 Y-0.8181 Z-1.266
N5120 X1.3887 Y-0.819 Z-1.2605
N5125 X1.3886 Y-0.8193 Z-1.2549
N5130 G0 Z0.105
N5135 X2.4366 Y0.2189
N5140 Z-1.2049
N5145 G1 Z-1.2549 F72.
N5150 X2.4363 Y0.2188 Z-1.2605
N5155 X2.4354 Y0.2186 Z-1.266
N5160 X2.4339 Y0.2182 Z-1.2714
N5165 X2.4318 Y0.2176 Z-1.2766
N5170 X2.4292 Y0.217 Z-1.2815
N5175 X2.426 Y0.2162 Z-1.286
N5180 X2.4224 Y0.2153 Z-1.2902
N5185 X2.4184 Y0.2142 Z-1.2939
N5190 X2.4139 Y0.2131 Z-1.2972
N5195 X2.4092 Y0.2119 Z-1.2999
N5200 X2.4042 Y0.2106 Z-1.3021
N5205 X2.3989 Y0.2093 Z-1.3036
N5210 X2.3936 Y0.2079 Z-1.3045
N5215 X2.3881 Y0.2065 Z-1.3049
N5220 G3 X2.3537 Y0.1877 I0.0195 J-0.0767
N5225 G1 X2.3178 Y0.1518
N5230 G3 X2.2537 Y0.019 I0.2205 J-0.1881
N5235 X2.2222 Y-0.144 I1.0907 J-0.2955
N5240 G2 X2.1622 Y-0.3343 I-0.6198 J0.0908
N5245 X1.9027 Y-0.5484 I-0.4146 J0.2384
N5250 X1.6807 Y-0.6024 I-0.3263 J0.8573
N5255 G3 X1.5567 Y-0.6248 I0.1072 J-0.9492
N5260 G1 X1.5402 Y-0.633
N5265 X1.5248 Y-0.643
N5270 X1.511 Y-0.655
N5275 X1.4676 Y-0.6983
N5280 G3 X1.4558 Y-0.7139 I0.072 J-0.0671
N5285 G1 X1.4557 Y-0.714
N5290 G3 X1.4472 Y-0.7316 I0.0839 J-0.0515
N5295 X1.4623 Y-0.8264 I0.0924 J-0.0339 F300.
N5300 G1 X1.4624 Y-0.8265
N5305 G3 X1.5749 Y-0.8573 I0.0772 J0.061
N5310 G1 X2.0535 Y-0.6465
N5315 X2.1374 Y-0.5903
N5320 X2.2012 Y-0.5341
N5325 X2.2505 Y-0.4756
N5330 X2.306 Y-0.386
N5335 X2.3489 Y-0.253
N5340 X2.4481 Y0.0731
N5345 G3 X2.3518 Y0.1705 I-0.0763 J0.0208
N5350 X2.3178 Y0.1518 I0.0199 J-0.0766 F72.
N5355 G1 X2.2803 Y0.1143
N5360 G3 X2.2198 Y-0.0052 I0.2147 J-0.1838
N5365 X2.1788 Y-0.1686 I2.2968 J-0.6625
N5370 G2 X2.0548 Y-0.3915 I-0.4888 J0.126
N5375 X1.7799 Y-0.5374 I-0.4021 J0.4258
N5380 X1.6166 Y-0.5739 I-0.6899 J2.7015
N5385 G3 X1.5578 Y-0.608 I0.0377 J-0.1324
N5390 G1 X1.511 Y-0.655
N5395 G3 X1.4906 Y-0.6882 I0.072 J-0.0671
N5400 X1.4849 Y-0.714 I0.0924 J-0.0339 F300.
N5405 G1 X1.4846 Y-0.7252
N5410 G3 X1.6311 Y-0.8079 I0.0984 J0.0031
N5415 G1 X2.0759 Y-0.5701
N5420 X2.1289 Y-0.5289
N5425 X2.2069 Y-0.4484
N5430 X2.2617 Y-0.3654
N5435 X2.2904 Y-0.3092
N5440 X2.4081 Y0.0281
N5445 G3 X2.3144 Y0.1331 I-0.0739 J0.0283
N5450 X2.2803 Y0.1143 I0.0199 J-0.0766 F72.
N5455 G1 X2.2439 Y0.0779
N5460 G3 X2.1786 Y-0.0482 I0.2371 J-0.2027
N5465 G2 X2.1318 Y-0.1836 I-4.596 J1.5116
N5470 X1.8302 Y-0.4711 I-0.4678 J0.1887
N5475 X1.6633 Y-0.5229 I-0.4474 J1.147
N5480 G3 X1.6105 Y-0.5554 I0.0455 J-0.1332
N5485 G1 X1.5579 Y-0.6081
N5490 G3 X1.5375 Y-0.6413 I0.072 J-0.0671
N5495 X1.6816 Y-0.7589 I0.0924 J-0.0339 F300.
N5500 G1 X2.0814 Y-0.5003
N5505 X2.1542 Y-0.4329
N5510 X2.2053 Y-0.3654
N5515 X2.3678 Y-0.0168
N5520 G3 X2.278 Y0.0967 I-0.07 J0.0369
N5525 X2.2439 Y0.0779 I0.0199 J-0.0766 F72.
N5530 G1 X2.2053 Y0.0394
N5535 G3 X2.145 Y-0.0603 I0.2454 J-0.2166
N5540 G2 X2.0694 Y-0.2144 I-1.2998 J0.5416
N5545 X1.7815 Y-0.4393 I-0.4657 J0.2997
N5550 G3 X1.7023 Y-0.4708 I1.112 J-2.9086
N5555 G1 X1.6868 Y-0.4811
N5560 X1.6727 Y-0.4932
N5565 X1.6105 Y-0.5554
N5570 G3 X1.59 Y-0.5886 I0.0731 J-0.0682
N5575 X1.7544 Y-0.6943 I0.0937 J-0.035 F300.
N5580 G1 X2.3442 Y-0.1045
N5585 G3 X2.2385 Y0.0599 I-0.0707 J0.0707
N5590 X2.2053 Y0.0394 I0.035 J-0.0937 F72.
N5595 G1 X2.1603 Y-0.0056
N5600 G3 X2.0794 Y-0.1253 I0.4592 J-0.3979
N5605 G2 X1.9098 Y-0.3173 I-0.5727 J0.3349
N5610 X1.7751 Y-0.3946 I-0.5272 J0.7632
N5615 G1 X1.7638 Y-0.4033
N5620 X1.7532 Y-0.4127
N5625 X1.6727 Y-0.4932
N5630 G3 X1.6522 Y-0.5264 I0.0731 J-0.0682
N5635 X1.8165 Y-0.6322 I0.0937 J-0.035 F300.
N5640 G1 X2.2993 Y-0.1494
N5645 G3 X2.1935 Y0.0149 I-0.0707 J0.0707
N5650 X2.1603 Y-0.0056 I0.035 J-0.0937 F72.
N5655 G1 X2.0816 Y-0.0843
N5660 G2 X1.9452 Y-0.231 I-1.6615 J1.4081
N5665 G3 X1.8866 Y-0.2792 I0.6895 J-0.9001
N5670 G1 X1.8814 Y-0.2851
N5675 X1.8768 Y-0.2915
N5680 X1.8727 Y-0.2982
N5685 X1.8691 Y-0.3052
N5690 X1.8661 Y-0.3125
N5695 G3 X2.0305 Y-0.4182 I0.0937 J-0.035 F300.
N5700 G1 X2.2206 Y-0.2282
N5705 G3 X2.1148 Y-0.0638 I-0.0707 J0.0707
N5710 X2.0816 Y-0.0843 I0.035 J-0.0937 F72.
N5715 G1 X1.7532 Y-0.4127
N5720 G3 X1.7327 Y-0.4459 I0.0731 J-0.0682
N5725 G1 X1.7307 Y-0.4511 Z-1.3045
N5730 X1.7288 Y-0.4563 Z-1.3036
N5735 X1.7269 Y-0.4614 Z-1.3021
N5740 X1.7251 Y-0.4662 Z-1.2999
N5745 X1.7234 Y-0.4708 Z-1.2972
N5750 X1.7218 Y-0.4751 Z-1.2939
N5755 X1.7203 Y-0.479 Z-1.2902
N5760 X1.719 Y-0.4825 Z-1.286
N5765 X1.7179 Y-0.4856 Z-1.2815
N5770 X1.7169 Y-0.4881 Z-1.2766
N5775 X1.7162 Y-0.4901 Z-1.2714
N5780 X1.7156 Y-0.4916 Z-1.266
N5785 X1.7153 Y-0.4924 Z-1.2605
N5790 X1.7152 Y-0.4927 Z-1.2549
N5795 G0 Z0.105
N5800 X2.1022 Y1.1994
N5805 Z-1.2049
N5810 G1 Z-1.2549 F72.
N5815 X2.1024 Y1.1992 Z-1.2605
N5820 X2.103 Y1.1985 Z-1.266
N5825 X2.1041 Y1.1973 Z-1.2714
N5830 X2.1055 Y1.1957 Z-1.2766
N5835 X2.1073 Y1.1937 Z-1.2815
N5840 X2.1094 Y1.1913 Z-1.286
N5845 X2.1119 Y1.1885 Z-1.2902
N5850 X2.1147 Y1.1854 Z-1.2939
N5855 X2.1177 Y1.1819 Z-1.2972
N5860 X2.121 Y1.1783 Z-1.2999
N5865 X2.1244 Y1.1744 Z-1.3021
N5870 X2.128 Y1.1704 Z-1.3036
N5875 X2.1317 Y1.1662 Z-1.3045
N5880 X2.1354 Y1.162 Z-1.3049
N5885 G3 X2.1679 Y1.14 I0.0592 J0.0525
N5890 G2 X2.2498 Y1.1107 I-0.2977 J-0.9586
N5895 G3 X2.3549 Y1.0861 I0.1846 J0.5517
N5900 G2 X2.5945 Y0.876 I-0.0764 J-0.3289
N5905 G1 X2.6009 Y0.8654
N5910 X2.6074 Y0.8551
N5915 X2.6149 Y0.8454
N5920 G2 X2.6934 Y0.7385 I-0.6503 J-0.559
N5925 G1 X2.6976 Y0.7319
N5930 X2.7024 Y0.7257
N5935 X2.7077 Y0.7199
N5940 X2.7134 Y0.7145
N5945 X2.7195 Y0.7095
N5950 G3 X2.8431 Y0.8666 I0.0591 J0.0807 F300.
N5955 G1 X2.3569 Y1.2776
N5960 G3 X2.2184 Y1.1339 I-0.0646 J-0.0764
N5965 X2.2498 Y1.1107 I0.074 J0.0673 F72.
N5970 G2 X2.615 Y0.8455 I-0.3645 J-0.886
N5975 G1 X2.6205 Y0.8399
N5980 X2.6265 Y0.8347
N5985 X2.6328 Y0.8301
N5990 X2.6394 Y0.826
N5995 X2.6464 Y0.8223
N6000 X2.6515 Y0.82 Z-1.3045
N6005 X2.6565 Y0.8176 Z-1.3036
N6010 X2.6614 Y0.8154 Z-1.3021
N6015 X2.6661 Y0.8132 Z-1.2999
N6020 X2.6705 Y0.8111 Z-1.2972
N6025 X2.6747 Y0.8092 Z-1.2939
N6030 X2.6785 Y0.8074 Z-1.2902
N6035 X2.6818 Y0.8058 Z-1.286
N6040 X2.6848 Y0.8045 Z-1.2815
N6045 X2.6872 Y0.8033 Z-1.2766
N6050 X2.6892 Y0.8024 Z-1.2714
N6055 X2.6906 Y0.8018 Z-1.266
N6060 X2.6915 Y0.8014 Z-1.2605
N6065 X2.6917 Y0.8012 Z-1.2549
N6070 G0 Z0.205
N6075 M5
N6080 M9
G90
G0 Z1.
N6085 M30

